!!!OTL: Lied im Freien.
!!!OTL-incipit:WIE SCHOEN ISTS IM FREIEN
!!!COM: C. Glaeser
!!!ARE: Europa, Mitteleuropa, Deutschland
!!!SCT: F0262
!!!TXL: @@DE
!!!YEM: Copyright 1995, estate of Helmut Schaffrath.
**kern	**text
*ICvox	*
*clefG2	*
*M3/8	*
*k[f#c#g#]	*
*A:	*
!LO:TX:a:t=Alle.	!
{8e	1._Wie
=1	=1
8a	ſchön
8g#	iſt's
8a	im
=2	=2
8b/	Freien,
8a}	.
{8e	bei
=3	=3
8cc#/	grü-
8b/	-nen-
8cc#/	-den
=4	=4
16eeqq	.
8dd	Mai-
8cc#}	-en,
{8cc#	im
=5	=5
8ee	Wal-
8dd	-de
8cc#	wie
=6	=6
4b/	ſchön!
!LO:TX:a:t=Solo.	!
8cc#/	wie
=7	=7
4b/}	ſchön!
!LO:TX:a:t=Alle.	!
{8b/	Wie
=8	=8
8g#	ſüß
8g#	ſich
8a	ʒu
=9	=9
8cc#/	ſon-
8b/	-nen,
16r}	.
{16b/	den
=10	=10
8cc#/	Städten
8cc#/	.
8dd/	ent-
=11	=11
8ff#	-ronnen,
8ee	.
16r}	.
{16ee	auf
=12	=12
8ee	luf-
8cc#	-ti-
8b/	-gen
=13	=13
4a	Höh'n!
!LO:TX:a:t=Solo.	!
8b/	auf
=14	=14
4a}	Höh'n!
==	==
!!!AGN: Jugend - Lied, Belehrung, Natur
!!!ONB: ESAC (Essen Associative Code) Database: FINK
!!!AMT: simple triple
!!!AIN: vox
!!!EED: Helmut Schaffrath
!!!EEV: 1.0
!!!GTL: Jugendlieder
!!Text: Salis
!!!source: Musikalischer Hausschatz der Deutschen. Eine Sammlung von über 1000 Liedern und Gesängen mit Singstimmen und Klavierbegleitung. Leipzig, Litterarisches Verlags-Haus.
!!!page: 158
!!!URL-scan: https://www.digitale-sammlungen.de/en/view/bsb11144622?page=156,157
!!!ENC: Anna Maria Matuszewska
!!!EEV: 2024/07/29
*-	*-